static/icons/basic/puzzle.svg

<svg width="30" height="30" viewBox="0 0 30 30" fill="none" xmlns="http://www.w3.org/2000/svg">
<path d="M9.00033 5.00008C9.00033 3.15913 10.4927 1.66675 12.3337 1.66675C14.1746 1.66675 15.667 3.15913 15.667 5.00008V7.00008H17.0003C18.8641 7.00008 19.796 7.00008 20.5311 7.30456C21.5112 7.71054 22.2899 8.48924 22.6958 9.46935C23.0003 10.2044 23.0003 11.1363 23.0003 13.0001H25.0003C26.8413 13.0001 28.3337 14.4925 28.3337 16.3334C28.3337 18.1744 26.8413 19.6667 25.0003 19.6667H23.0003V21.9334C23.0003 24.1736 23.0003 25.2937 22.5644 26.1494C22.1809 26.902 21.5689 27.5139 20.8163 27.8974C19.9606 28.3334 18.8405 28.3334 16.6003 28.3334H15.667V26.0001C15.667 24.3432 14.3238 23.0001 12.667 23.0001C11.0101 23.0001 9.66699 24.3432 9.66699 26.0001V28.3334H8.06699C5.82678 28.3334 4.70668 28.3334 3.85103 27.8974C3.09838 27.5139 2.48646 26.902 2.10297 26.1494C1.66699 25.2937 1.66699 24.1736 1.66699 21.9334V19.6667H3.66699C5.50794 19.6667 7.00033 18.1744 7.00033 16.3334C7.00033 14.4925 5.50794 13.0001 3.66699 13.0001H1.66699C1.66699 11.1363 1.66699 10.2044 1.97147 9.46935C2.37745 8.48924 3.15615 7.71054 4.13626 7.30456C4.87134 7.00008 5.80323 7.00008 7.66699 7.00008H9.00033V5.00008Z" stroke="#121315" stroke-width="2.66667" stroke-linecap="round" stroke-linejoin="round"/>
</svg>

<svg xmlns="http://www.w3.org/2000/svg" width="30" height="30" fill="none"><path stroke="#121315" stroke-linecap="round" stroke-linejoin="round" stroke-width="2.667" d="M9 5a3.333 3.333 0 1 1 6.667 0v2H17c1.864 0 2.796 0 3.531.305a4 4 0 0 1 2.165 2.164C23 10.204 23 11.136 23 13h2a3.333 3.333 0 1 1 0 6.667h-2v2.266c0 2.24 0 3.36-.436 4.216a4 4 0 0 1-1.748 1.748c-.855.436-1.976.436-4.216.436h-.933V26a3 3 0 0 0-6 0v2.333h-1.6c-2.24 0-3.36 0-4.216-.436a4 4 0 0 1-1.748-1.748c-.436-.855-.436-1.975-.436-4.216v-2.266h2a3.333 3.333 0 1 0 0-6.667h-2c0-1.864 0-2.796.304-3.53a4 4 0 0 1 2.165-2.165C4.871 7 5.803 7 7.667 7H9z"/></svg>
